src/apps/symbolic/org.gnome.Boxes-symbolic.svg

<svg width="16" height="16" version="1.1" xmlns="http://www.w3.org/2000/svg">
 <title>Gnome Symbolic Icon Theme</title>
 <g transform="translate(-62.969 -174.97)">
  <path transform="translate(62.969 174.97)" d="m2.5 0a2.5 2.5 0 0 0-2.5 2.5 2.5 2.5 0 0 0 2 2.4434v6.1133a2.5 2.5 0 0 0-2 2.4434 2.5 2.5 0 0 0 2.5 2.5 2.5 2.5 0 0 0 2.4434-2h6.1133a2.5 2.5 0 0 0 2.4434 2 2.5 2.5 0 0 0 2.5-2.5 2.5 2.5 0 0 0-2-2.4492v-6.1074a2.5 2.5 0 0 0 2-2.4434 2.5 2.5 0 0 0-2.5-2.5 2.5 2.5 0 0 0-2.4434 2h-6.1074a2.5 2.5 0 0 0-2.4492-2zm0 1a1.5 1.5 0 0 1 1.5 1.5 1.5 1.5 0 0 1-1.5 1.5 1.5 1.5 0 0 1-1.5-1.5 1.5 1.5 0 0 1 1.5-1.5zm11 0a1.5 1.5 0 0 1 1.5 1.5 1.5 1.5 0 0 1-1.5 1.5 1.5 1.5 0 0 1-1.5-1.5 1.5 1.5 0 0 1 1.5-1.5zm-8.5566 2h6.1133a2.5 2.5 0 0 0 0.375 0.86133l-0.28516 0.28516a1.5 1.5 0 0 0-0.64648-0.14648 1.5 1.5 0 0 0-1.4102 1h-2.1758a1.5 1.5 0 0 0-1.4141-1 1.5 1.5 0 0 0-0.63281 0.16016l-0.29883-0.29883a2.5 2.5 0 0 0 0.375-0.86133zm-1.082 1.5684 0.29883 0.29883a1.5 1.5 0 0 0-0.16016 0.63281 1.5 1.5 0 0 0 1 1.4102v2.1797a1.5 1.5 0 0 0-1 1.4102 1.5 1.5 0 0 0 0.16016 0.63281l-0.29297 0.29297a2.5 2.5 0 0 0-0.86719-0.375v-6.1074a2.5 2.5 0 0 0 0.86133-0.375zm8.2773 0a2.5 2.5 0 0 0 0.86133 0.375v6.1133a2.5 2.5 0 0 0-0.86133 0.375l-0.29883-0.29883a1.5 1.5 0 0 0 0.16016-0.63281 1.5 1.5 0 0 0-1-1.4141v-2.1758a1.5 1.5 0 0 0 1-1.4102 1.5 1.5 0 0 0-0.14648-0.64648l0.28516-0.28516zm-6.6387 0.43164a0.5 0.5 0 0 1 0.5 0.5 0.5 0.5 0 0 1-0.5 0.5 0.5 0.5 0 0 1-0.5-0.5 0.5 0.5 0 0 1 0.5-0.5zm5 0a0.5 0.5 0 0 1 0.5 0.5 0.5 0.5 0 0 1-0.5 0.5 0.5 0.5 0 0 1-0.5-0.5 0.5 0.5 0 0 1 0.5-0.5zm-3.5898 1h2.1797a1.5 1.5 0 0 0 0.91016 0.91016v2.1797a1.5 1.5 0 0 0-0.91016 0.91016h-2.1758a1.5 1.5 0 0 0-0.91406-0.91406v-2.1758a1.5 1.5 0 0 0 0.91016-0.91016zm-1.4102 4a0.5 0.5 0 0 1 0.5 0.5 0.5 0.5 0 0 1-0.5 0.5 0.5 0.5 0 0 1-0.5-0.5 0.5 0.5 0 0 1 0.5-0.5zm5 0a0.5 0.5 0 0 1 0.5 0.5 0.5 0.5 0 0 1-0.5 0.5 0.5 0.5 0 0 1-0.5-0.5 0.5 0.5 0 0 1 0.5-0.5zm-3.5898 1h2.1797a1.5 1.5 0 0 0 1.4102 1 1.5 1.5 0 0 0 0.63281-0.16016l0.29883 0.29883a2.5 2.5 0 0 0-0.375 0.86133h-6.1074a2.5 2.5 0 0 0-0.375-0.86719l0.29297-0.29297a1.5 1.5 0 0 0 0.63281 0.16016 1.5 1.5 0 0 0 1.4102-1zm-4.4102 1a1.5 1.5 0 0 1 1.5 1.5 1.5 1.5 0 0 1-1.5 1.5 1.5 1.5 0 0 1-1.5-1.5 1.5 1.5 0 0 1 1.5-1.5zm11 0a1.5 1.5 0 0 1 1.5 1.5 1.5 1.5 0 0 1-1.5 1.5 1.5 1.5 0 0 1-1.5-1.5 1.5 1.5 0 0 1 1.5-1.5z" color="#000000" enable-background="new" fill="#363636" style="text-decoration-line:none;text-indent:0;text-transform:none"/>
 </g>
</svg>

<svg xmlns="http://www.w3.org/2000/svg" width="16" height="16">
    <path fill="#050505" d="M2.5 0A2.5 2.5 0 0 0 0 2.5a2.5 2.5 0 0 0 2 2.443v6.114A2.5 2.5 0 0 0 0 13.5 2.5 2.5 0 0 0 2.5 16a2.5 2.5 0 0 0 2.443-2h6.114a2.5 2.5 0 0 0 2.443 2 2.5 2.5 0 0 0 2.5-2.5 2.5 2.5 0 0 0-2-2.45V4.944A2.5 2.5 0 0 0 16 2.5 2.5 2.5 0 0 0 13.5 0a2.5 2.5 0 0 0-2.443 2H4.949A2.5 2.5 0 0 0 2.5 0zm0 1A1.5 1.5 0 0 1 4 2.5 1.5 1.5 0 0 1 2.5 4 1.5 1.5 0 0 1 1 2.5 1.5 1.5 0 0 1 2.5 1zm11 0A1.5 1.5 0 0 1 15 2.5 1.5 1.5 0 0 1 13.5 4 1.5 1.5 0 0 1 12 2.5 1.5 1.5 0 0 1 13.5 1zM4.943 3h6.114a2.5 2.5 0 0 0 .375.861l-.285.285A1.5 1.5 0 0 0 10.5 4a1.5 1.5 0 0 0-1.41 1H6.914A1.5 1.5 0 0 0 5.5 4a1.5 1.5 0 0 0-.633.16l-.299-.299A2.5 2.5 0 0 0 4.943 3zM3.861 4.568l.3.3A1.5 1.5 0 0 0 4 5.5a1.5 1.5 0 0 0 1 1.41v2.18a1.5 1.5 0 0 0-1 1.41 1.5 1.5 0 0 0 .16.633l-.294.293A2.5 2.5 0 0 0 3 11.05V4.944a2.5 2.5 0 0 0 .861-.375zm8.278 0a2.5 2.5 0 0 0 .861.375v6.114a2.5 2.5 0 0 0-.861.375l-.3-.3A1.5 1.5 0 0 0 12 10.5a1.5 1.5 0 0 0-1-1.414V6.91a1.5 1.5 0 0 0 1-1.41 1.5 1.5 0 0 0-.146-.647l.285-.285zM5.5 5a.5.5 0 0 1 .5.5.5.5 0 0 1-.5.5.5.5 0 0 1-.5-.5.5.5 0 0 1 .5-.5zm5 0a.5.5 0 0 1 .5.5.5.5 0 0 1-.5.5.5.5 0 0 1-.5-.5.5.5 0 0 1 .5-.5zM6.91 6h2.18a1.5 1.5 0 0 0 .91.91v2.18a1.5 1.5 0 0 0-.91.91H6.914A1.5 1.5 0 0 0 6 9.086V6.91A1.5 1.5 0 0 0 6.91 6zM5.5 10a.5.5 0 0 1 .5.5.5.5 0 0 1-.5.5.5.5 0 0 1-.5-.5.5.5 0 0 1 .5-.5zm5 0a.5.5 0 0 1 .5.5.5.5 0 0 1-.5.5.5.5 0 0 1-.5-.5.5.5 0 0 1 .5-.5zm-3.59 1h2.18a1.5 1.5 0 0 0 1.41 1 1.5 1.5 0 0 0 .633-.16l.299.299a2.5 2.5 0 0 0-.375.861H4.949a2.5 2.5 0 0 0-.375-.867l.293-.293A1.5 1.5 0 0 0 5.5 12a1.5 1.5 0 0 0 1.41-1zM2.5 12A1.5 1.5 0 0 1 4 13.5 1.5 1.5 0 0 1 2.5 15 1.5 1.5 0 0 1 1 13.5 1.5 1.5 0 0 1 2.5 12zm11 0a1.5 1.5 0 0 1 1.5 1.5 1.5 1.5 0 0 1-1.5 1.5 1.5 1.5 0 0 1-1.5-1.5 1.5 1.5 0 0 1 1.5-1.5z" color="#000" opacity=".7" style="text-decoration-line:none;text-indent:0;text-transform:none"/>
</svg>
